X: 133
T:Missa Hercules dux Ferrarie / Credo
N: Derived from Jos1101c-Missa_Hercules_dux_Ferrarie-Credo.krn
C: Josquin des Prez
%%abc-version 2.0
%%abcx-abcm2ps-target-version 5.9.1 (29 Sep 2008)
%%abc-creator hum2abc beta
%%abcx-conversion-date 2019/02/12 16:15:44
%%abc-edited-by Jesse Rodin
%%abc-edited-by Jesse Rodin; Victoria Chang 2011/09/10
%%abcx-initial-encoding-date 2011/09/10/
%%humdrum-veritas 3851666424
%%humdrum-veritas-data 588932230
%%linebreak <none>
%%barnumbers 0
L: 1/4
M: 3/1
Q: 1/2=120
%%staves [1 2 3 4]
V: 1 clef=treble
V: 2 clef=treble-8
V: 3 clef=treble-8
V: 4 clef=bass
K: C
[V:1] z12 | 
[V:2] A4_B4A2F2 | 
[V:3] z12 | 
[V:4] z12 | 
[V:1] E4F4E2C2 | 
[V:2] G2A3Dd2cBAG | 
[V:3] z12 | 
[V:4] z12 | 
[V:1] D2E3A,A2GFED | 
[V:2] F2G2A3Bcde2- | 
[V:3] z12 | 
[V:4] z12 | 
[V:1] C2D2E4D2F2 | 
[V:2] edd4^c2d4 | 
[V:3] z12 | 
[V:4] z12 | 
[V:1] G2A3GFEDCB,2 | 
[V:2] B2c2d4d4 | 
[V:3] z12 | 
[V:4] z12 | 
[V:1] A,2A3GFEDCB,2 | 
[V:2] c2d2A4d4 | 
[V:3] z12 | 
[V:4] z12 | 
[V:1] A,2A3GFEDCB,2 | 
[V:2] c2d2A4d4 | 
[V:3] z12 | 
[V:4] z4z4F,2G,2 | 
[V:1] A,2A3GFED2C2 | 
[V:2] c4z4z4 | 
[V:3] z12 | 
[V:4] A,3G,F,E,D,C,B,,2A,,2 | 
[V:1] z2A3GF3ED2 | 
[V:2] z2A4A2A2B2 | 
[V:3] D12 | 
[V:4] A,3G,F,E,D,3C,B,,2 | 
[V:1] E8E4 | 
[V:2] c3Bc2A2G4 | 
[V:3] C12 | 
[V:4] A,,8z4 | 
[V:1] A,4A3AA2F2 | 
[V:2] F4f6ed | 
[V:3] D12 | 
[V:4] z2A,4A,2A,2B,2 | 
[V:1] A2G3FF4E2 | 
[V:2] e3de2c3Bc2 | 
[V:3] C12 | 
[V:4] C3B,C2A,2G,4 | 
[V:1] F4A3GFED2 | 
[V:2] A4z2D2F2G2 | 
[V:3] D12 | 
[V:4] F,2A,3G,F,E,D,C,B,,2 | 
[V:1] C2c3BAGFEDC | 
[V:2] A3Bc4d4 | 
[V:3] F12 | 
[V:4] A,,2A,3G,F,E,D,C,B,,A,, | 
[V:1] G3FEDD4^C2 | 
[V:2] G4A2G2A4 | 
[V:3] E12 | 
[V:4] C,D,E,2A,,2B,,2A,,4 | 
[V:1] D12 | 
[V:2] z2A4A2A2B2 | 
[V:3] D12 | 
[V:4] A,3G,F,E,D,3C,B,,2 | 
[V:1] z12 | 
[V:2] c3cc2F3ED2 | 
[V:3] z12 | 
[V:4] A,,2A,4A,2A,2B,2 | 
[V:1] z12 | 
[V:2] C2F2E2A4F2 | 
[V:3] z12 | 
[V:4] C3CC2F,3E,D,2 | 
[V:1] z12 | 
[V:2] c3BG2F2c3B | 
[V:3] z12 | 
[V:4] C,2F,2E,2A,4F,2 | 
[V:1] z12 | 
[V:2] AGF2E2D2C2c2- | 
[V:3] z12 | 
[V:4] C3B,A,G,F,2C3B, | 
[V:1] z12 | 
[V:2] cBA2G2F2c3B | 
[V:3] z12 | 
[V:4] A,G,F,2E,2D,2C,2C2- | 
[V:1] z12 | 
[V:2] AGF2E2c3BAG | 
[V:3] z12 | 
[V:4] CB,A,2G,2F,2C3B, | 
[V:1] z12 | 
[V:2] F2c3BA3GFE | 
[V:3] z12 | 
[V:4] A,G,F,2E,2C3B,A,G, | 
[V:1] z12 | 
[V:2] DCF3E/D/d4c2 | 
[V:3] z12 | 
[V:4] F,E,D,C,D,4E,4 | 
[V:1] z2A,2C3DE2F2 | 
[V:2] d2f2e4z4 | 
[V:3] A12 | 
[V:4] D,4z2A,,2C,2D,2 | 
[V:1] G3FEDD4C2 | 
[V:2] z12 | 
[V:3] G12 | 
[V:4] E,2G,3F,E,D,E,4 | 
[V:1] D2F2E4z4 | 
[V:2] z2A2c3de2f2 | 
[V:3] A12 | 
[V:4] D,4z2A,,2C,2D,2 | 
[V:1] z12 | 
[V:2] g3fedd4c2 | 
[V:3] G12 | 
[V:4] E,2G,3F,E,D,E,4 | 
[V:1] z2D2C2F2E2A,2 | 
[V:2] d2f2e2A2z2A2 | 
[V:3] A12 | 
[V:4] D,4z2D,2C,2F,2 | 
[V:1] z2A2A2A2E3F | 
[V:2] G2A3Bcde2e2 | 
[V:3] c12 | 
[V:4] E,2A,,2z2A,2A,2A,2 | 
[V:1] G2G2G2G2D2D2 | 
[V:2] e2e2B3cd2d2 | 
[V:3] B12 | 
[V:4] E,3F,G,2G,2G,2G,2 | 
[V:1] F2F2F4C4 | 
[V:2] d2d2A2A2c2c2 | 
[V:3] A12 | 
[V:4] D,2D,2F,2F,2F,4 | 
[V:1] z2G3GG2A2G2 | 
[V:2] c4G4z2c2- | 
[V:3] z12 | 
[V:4] C,12 | 
[V:1] E3GF2E2z2E2 | 
[V:2] ccc2d2c2A3c | 
[V:3] z12 | 
[V:4] z12 | 
[V:1] D2E3DEFG3E | 
[V:2] B2A2z2A2G2A2- | 
[V:3] z12 | 
[V:4] z12 | 
[V:1] FGE2z2A2G2A2- | 
[V:2] AGABc3AB2A2 | 
[V:3] z12 | 
[V:4] z12 | 
[V:1] ABcAB2A4G2 | 
[V:2] d2c2d3efde2 | 
[V:3] z12 | 
[V:4] z12 | 
[V:1] FDE2D2A2GEFG | 
[V:2] d2cAB2A2e2dB | 
[V:3] z12 | 
[V:4] z12 | 
[V:1] EDG2FDE2D2A2 | 
[V:2] cdBAd2cAB2A2 | 
[V:3] z12 | 
[V:4] z12 | 
[V:1] GEFGEDG2FDE2 | 
[V:2] e2dBcdBe3/d/d2^c | 
[V:3] z12 | 
[V:4] z12 | 
[V:1] D4z4z4 | 
[V:2] d4D2D2F2D2 | 
[V:3] d12 | 
[V:4] z2D,2D,2F,2D,2F,2- | 
[V:1] A,2A,2C2A,2CDE2 | 
[V:2] F3GA8 | 
[V:3] c12 | 
[V:4] F,G,A,2A,,8 | 
[V:1] FDFGA4z2A,2 | 
[V:2] z2D2D2D2F2D2 | 
[V:3] d12 | 
[V:4] D,2D,2D,2F,2D,2F,2- | 
[V:1] A,2A,2C2A,2CDE2 | 
[V:2] F3GA8 | 
[V:3] c12 | 
[V:4] F,G,A,2A,,8 | 
[V:1] F2D2z2D2F2D2 | 
[V:2] F2_B2AF_B2AF_B2 | 
[V:3] d12 | 
[V:4] D,2G,2F,D,G,2F,D,G,2 | 
[V:1] A4z2A2A3B | 
[V:2] A2d2cAd2cAd2 | 
[V:3] f12 | 
[V:4] F,2D,2F,2D,2F,3G, | 
[V:1] cde4d4c2 | 
[V:2] c3B/A/c2B2cAc2 | 
[V:3] e12 | 
[V:4] A,B,C3B,G,2A,4 | 
[V:1] d3c_B2A2G4 | 
[V:2] _B2G4A2_B2G2 | 
[V:3] d12- | 
[V:4] z2_B,3A,F,2G,3F, | 
[V:1] F12 ||  
[V:2] _B4A8 ||  
[V:3] d12 ||  
[V:4] D,12 ||  
[V:1]  [K:C] [K:clef=treble][M:2/1]z8 | 
[V:2]  [K:C] [K:clef=treble-8][M:2/1]z8 | 
[V:3]  [K:C] [K:clef=treble-8][M:2/1]z8 | 
[V:4]  [K:C] [K:clef=bass][M:2/1]A,,4A,,2A,,2 | 
[V:1] z8 | 
[V:2] z4z2A2 | 
[V:3] z8 | 
[V:4] B,,4C,4 | 
[V:1] z2D2D2D2 | 
[V:2] A2A2B4 | 
[V:3] z8 | 
[V:4] D,8 | 
[V:1] E4F4 | 
[V:2] c4d2A2 | 
[V:3] z8 | 
[V:4] z8 | 
[V:1] G2E2F2G2 | 
[V:2] B2c2d2B2 | 
[V:3] z8 | 
[V:4] z8 | 
[V:1] E2F4ED | 
[V:2] c2d4cB | 
[V:3] z8 | 
[V:4] z8 | 
[V:1] E8 | 
[V:2] c3BAGA2 | 
[V:3] z8 | 
[V:4] z2A,,2A,,2A,,2 | 
[V:1] z8 | 
[V:2] F2G4FE | 
[V:3] z8 | 
[V:4] B,,4C,4 | 
[V:1] z4F4 | 
[V:2] F4z2D2 | 
[V:3] D8 | 
[V:4] D,8 | 
[V:1] E2C2E2G2 | 
[V:2] E3FG2E2 | 
[V:3] C8 | 
[V:4] z8 | 
[V:1] F2D2F3G | 
[V:2] F3GA4 | 
[V:3] D8 | 
[V:4] z4z2D,2 | 
[V:1] E4z2G2 | 
[V:2] z8 | 
[V:3] C8 | 
[V:4] E,3F,G,2E,2 | 
[V:1] F2D2F4- | 
[V:2] z8 | 
[V:3] D8 | 
[V:4] F,3G,A,4 | 
[V:1] F2EDC2D2 | 
[V:2] z2A2A2A2 | 
[V:3] F8 | 
[V:4] z8 | 
[V:1] E3CC4 | 
[V:2] B2c3BAG | 
[V:3] E8 | 
[V:4] z2A,,2A,,2A,,2 | 
[V:1] z2D4D2 | 
[V:2] F4z2F2 | 
[V:3] D8 | 
[V:4] B,,3C,D,4 | 
[V:1] D2D2D2D2 | 
[V:2] G2F2G2F2 | 
[V:3] z8 | 
[V:4] z8 | 
[V:1] E2C2D4 | 
[V:2] G2A2F2G2- | 
[V:3] z8 | 
[V:4] z8 | 
[V:1] E2C2D2E2 | 
[V:2] G2A2F2G2 | 
[V:3] z8 | 
[V:4] z8 | 
[V:1] F2D2E3C | 
[V:2] A2_B2G2A2- | 
[V:3] z8 | 
[V:4] z8 | 
[V:1] C2D4D2 | 
[V:2] AFF2G4 | 
[V:3] z8 | 
[V:4] z8 | 
[V:1] E2C2D2E2 | 
[V:2] G2A2F2G2 | 
[V:3] z8 | 
[V:4] z8 | 
[V:1] A,2F3EDC | 
[V:2] A2D2dcBA | 
[V:3] z8 | 
[V:4] z2D,4D,2 | 
[V:1] B,2A,2B,4 | 
[V:2] G2A4^G2 | 
[V:3] z8 | 
[V:4] E,2C,2D,2E,2 | 
[V:1] A,2E2F2F2 | 
[V:2] A4z2d2 | 
[V:3] A8 | 
[V:4] A,,4D,4 | 
[V:1] G3EE4 | 
[V:2] B2B2c4- | 
[V:3] G8 | 
[V:4] E,2E,2C,4 | 
[V:1] z2E2F2F2 | 
[V:2] c2BAA2d2 | 
[V:3] A8 | 
[V:4] A,,4D,4 | 
[V:1] G3EE4 | 
[V:2] B2B2c4- | 
[V:3] G8 | 
[V:4] E,2E,2C,4 | 
[V:1] z2E2C2F2 | 
[V:2] c2BAA2F2 | 
[V:3] A8 | 
[V:4] A,,4z2D,2 | 
[V:1] E2C3DEF | 
[V:2] G2A2E2e2- | 
[V:3] c8 | 
[V:4] C,2A,,2C,3D, | 
[V:1] GEA3^GG^F | 
[V:2] e2d2e4- | 
[V:3] B8 | 
[V:4] E,2F,2E,4 | 
[V:1] A4z2A,2 | 
[V:2] e2dcc4 | 
[V:3] A8 | 
[V:4] A,,8 | 
[V:1] A,B,CDE2A,2 | 
[V:2] z2A3Bcd | 
[V:3] z8 | 
[V:4] z8 | 
[V:1] CDEFG2C2 | 
[V:2] e2A2e3f | 
[V:3] z8 | 
[V:4] z8 | 
[V:1] z2G2A2c2 | 
[V:2] g2c2z2c2 | 
[V:3] z8 | 
[V:4] z8 | 
[V:1] B2A2G2F2 | 
[V:2] d2f2e2d2 | 
[V:3] z8 | 
[V:4] z8 | 
[V:1] E4z4 | 
[V:2] c2B2A4 | 
[V:3] z8 | 
[V:4] z2E,2F,2D,2 | 
[V:1] z2E2F2D2 | 
[V:2] z8 | 
[V:3] z8 | 
[V:4] E,2C,2D,2B,,2 | 
[V:1] E4z4 | 
[V:2] z2c2d2B2 | 
[V:3] z8 | 
[V:4] A,,2A,2_B,2G,2 | 
[V:1] z2A2_B2G2 | 
[V:2] c4z4 | 
[V:3] z8 | 
[V:4] A,2F,2G,2E,2 | 
[V:1] A2D2A2A2 | 
[V:2] z4z2F2- | 
[V:3] d8 | 
[V:4] D,2G,2F,2D,2 | 
[V:1] A4G4 | 
[V:2] FGAFG3A | 
[V:3] c8 | 
[V:4] F,4E,4 | 
[V:1] F2D2A4 | 
[V:2] _BA_B2A2F2- | 
[V:3] d8 | 
[V:4] D,2G,2F,2D,2 | 
[V:1] A4G4 | 
[V:2] FGAFG3A | 
[V:3] c8 | 
[V:4] F,4E,4 | 
[V:1] F2D2F3G | 
[V:2] _BA_B2A2_B2 | 
[V:3] d8 | 
[V:4] D,2G,2F,2D,2- | 
[V:1] AGA3Bcd | 
[V:2] A2DEFGAB | 
[V:3] f8 | 
[V:4] D,E,F,4E,D, | 
[V:1] ecd3^ccB | 
[V:2] c2G2A4 | 
[V:3] e8 | 
[V:4] C,2B,,2A,,4 | 
[V:1] d8 ||  
[V:2] F8 ||  
[V:3] d8 ||  
[V:4] D,8 ||  
[V:1]  [K:C] [K:clef=treble][M:2/1]z8 | 
[V:2]  [K:C] [K:clef=treble-8][M:2/1]z8 | 
[V:3]  [K:C] [K:clef=treble-8][M:2/1]d8 | 
[V:4]  [K:C] [K:clef=bass][M:2/1]D,3E,F,2G,2- | 
[V:1] z8 | 
[V:2] z8 | 
[V:3] e8 | 
[V:4] G,F,E,D,^C,D,E,C, | 
[V:1] A3Bc2d2- | 
[V:2] z2d2A2f2- | 
[V:3] f8 | 
[V:4] D,4z4 | 
[V:1] dcBA^GABG | 
[V:2] fedcB4 | 
[V:3] d8 | 
[V:4] z8 | 
[V:1] A2c4_BA | 
[V:2] A4z4 | 
[V:3] c8 | 
[V:4] z2A,4A,2 | 
[V:1] _B2A4G2 | 
[V:2] z8 | 
[V:3] d8 | 
[V:4] G,2F,2_B,4 | 
[V:1] A2c4_BA | 
[V:2] z2A4A2 | 
[V:3] c8 | 
[V:4] A,4z4 | 
[V:1] _B2A4G2 | 
[V:2] G2F2_B4 | 
[V:3] d8 | 
[V:4] z8 | 
[V:1] A8 | 
[V:2] A2A2A2A2 | 
[V:3] z8 | 
[V:4] z2A,,2A,,B,,C,D, | 
[V:1] z8 | 
[V:2] G2F2E4 | 
[V:3] z8 | 
[V:4] E,2D,3^C,C,B,, | 
[V:1] z2A2A2A2 | 
[V:2] DEFGAFf2 | 
[V:3] z8 | 
[V:4] D,8 | 
[V:1] G2F2E4 | 
[V:2] edd3^c^cB | 
[V:3] z8 | 
[V:4] z8 | 
[V:1] D2D2E2F2 | 
[V:2] d2B2c2d2 | 
[V:3] z8 | 
[V:4] z8 | 
[V:1] G2E2F2G2 | 
[V:2] B2c2d2B2 | 
[V:3] z8 | 
[V:4] z8 | 
[V:1] E2F2G2A2- | 
[V:2] c2d2e2f2- | 
[V:3] z8 | 
[V:4] z8 | 
[V:1] A2GFE4 | 
[V:2] f2edc4 | 
[V:3] z8 | 
[V:4] z8 | 
[V:1] z2c2c2c2 | 
[V:2] z2c2c2c2 | 
[V:3] A8 | 
[V:4] z2A,2A,2A,2 | 
[V:1] B3AG2F2 | 
[V:2] d2G3EF2 | 
[V:3] B8 | 
[V:4] G,3F,E,2D,2 | 
[V:1] E4z2A2- | 
[V:2] G4A4 | 
[V:3] c8 | 
[V:4] C,2B,,2A,,4 | 
[V:1] A2A2F2F2 | 
[V:2] F2D2d2A2 | 
[V:3] A8 | 
[V:4] z2F,2D,2F,2 | 
[V:1] G6FE | 
[V:2] B2e3dB2 | 
[V:3] G8 | 
[V:4] E,2C,3D,E,2 | 
[V:1] E2A2F2F2 | 
[V:2] c2A2d2A2 | 
[V:3] A8 | 
[V:4] A,,2F,2D,2F,2 | 
[V:1] G2G2E4- | 
[V:2] B2e3dB2 | 
[V:3] G8 | 
[V:4] E,2C,3D,E,2 | 
[V:1] E2DCC4 | 
[V:2] c3de2A2 | 
[V:3] A8 | 
[V:4] A,,4A,4 | 
[V:1] z4F4- | 
[V:2] d4z2c2- | 
[V:3] z8 | 
[V:4] D,4A,4- | 
[V:1] F2F2F2F2 | 
[V:2] c2c2c2c2 | 
[V:3] z8 | 
[V:4] A,2A,2A,2A,2 | 
[V:1] G4F2E2- | 
[V:2] d4c2B2- | 
[V:3] z8 | 
[V:4] _B,4A,2G,2- | 
[V:1] EDD4^C2 | 
[V:2] BAA4G2 | 
[V:3] z8 | 
[V:4] G,F,D,2E,4 | 
[V:1] D4A4- | 
[V:2] A4z2f2- | 
[V:3] z8 | 
[V:4] D,8 | 
[V:1] A2A2A2A2 | 
[V:2] f2f2f2f2 | 
[V:3] z8 | 
[V:4] z8 | 
[V:1] _B4A2G2- | 
[V:2] g4f2e2- | 
[V:3] z8 | 
[V:4] z8 | 
[V:1] GFD2E4 | 
[V:2] edd4^c2 | 
[V:3] z8 | 
[V:4] z8 | 
[V:1] D2A2F2A2 | 
[V:2] d2d2d2d2 | 
[V:3] D8 | 
[V:4] z2F,2D,2F,2 | 
[V:1] GFEDCB,A,2 | 
[V:2] B2e3dcB | 
[V:3] E8 | 
[V:4] E,D,C,B,,A,,4 | 
[V:1] z2A2F3G | 
[V:2] A4z2A2 | 
[V:3] F8 | 
[V:4] A,2F,G,A,2D,2 | 
[V:1] A2D2z2D2 | 
[V:2] F3GA2D2 | 
[V:3] D8 | 
[V:4] z2F,2D,2F,2 | 
[V:1] E3DCB,A,2 | 
[V:2] z2G2A3G | 
[V:3] C8 | 
[V:4] E,D,C,B,,A,,4 | 
[V:1] z2A4F2 | 
[V:2] FED2z2A2 | 
[V:3] D8 | 
[V:4] A,2F,G,A,2D,2 | 
[V:1] G2E2E4 | 
[V:2] c3BG2A2 | 
[V:3] C8 | 
[V:4] E,2C,D,E,2A,,2 | 
[V:1] z2A2FGA2 | 
[V:2] F2D2z2d2 | 
[V:3] D8 | 
[V:4] A,2F,G,A,2D,2 | 
[V:1] D2z2G2EF | 
[V:2] Bcd2G2z2 | 
[V:3] z8 | 
[V:4] z2G,2E,F,G,2 | 
[V:1] G2C2F4 | 
[V:2] c4A2d2- | 
[V:3] z8 | 
[V:4] C,2F,4D,2 | 
[V:1] D2G3EEC | 
[V:2] d2BGG2c2 | 
[V:3] z8 | 
[V:4] G,3E,E,C,C,2 | 
[V:1] C2z2F2D2 | 
[V:2] z2c2A2B2 | 
[V:3] z8 | 
[V:4] F,4z4 | 
[V:1] E2F2G2A2 | 
[V:2] c2d2e2c2 | 
[V:3] z8 | 
[V:4] z4z2F,2 | 
[V:1] F2G2A2D2 | 
[V:2] dfe2A2B2 | 
[V:3] z8 | 
[V:4] D,2E,2F,2G,2 | 
[V:1] z2A3GE2 | 
[V:2] c2d3B^c2 | 
[V:3] z8 | 
[V:4] A,2F,2G,2A,2 | 
[V:1] F4E4 | 
[V:2] d2A3GE2 | 
[V:3] z8 | 
[V:4] D,4z4 | 
[V:1] D2A,B,CDE2 | 
[V:2] F4E4 | 
[V:3] D4C4 | 
[V:4] z2A,3G,E,2 | 
[V:1] A,3B,CDE2 | 
[V:2] D2A3GE2 | 
[V:3] D4C4 | 
[V:4] F,4E,4 | 
[V:1] A,2F3ED2- | 
[V:2] F2D3EF2 | 
[V:3] D4F4 | 
[V:4] D,E,F,G,A,2D,2 | 
[V:1] D^CCB,D2F2- | 
[V:2] G2A2z2DE | 
[V:3] E4D4 | 
[V:4] E,2A,,2B,,2D,2- | 
[V:1] F2E3DB,2 | 
[V:2] FGA2E4 | 
[V:3] A4G4 | 
[V:4] D,C,A,,B,,C,D,E,2 | 
[V:1] CDEFG2DE | 
[V:2] e2e3dBc | 
[V:3] A4G4 | 
[V:4] A,,B,,C,D,E,F,G,2 | 
[V:1] FGA2A,2A2- | 
[V:2] d2A2e4 | 
[V:3] A4c4 | 
[V:4] D,E,F,G,A,2A,,2 | 
[V:1] A2G2A3F | 
[V:2] z2e2c2d2 | 
[V:3] B4A4 | 
[V:4] E,4A,,2D,2- | 
[V:1] F2A3GE2 | 
[V:2] D3EFGA2 | 
[V:3] d4c4 | 
[V:4] D,E,F,G,A,2A,,2 | 
[V:1] F2A3GE2 | 
[V:2] D3EFGA2 | 
[V:3] d4c4 | 
[V:4] D,E,F,G,A,2A,,2 | 
[V:1] D2F3ED2- | 
[V:2] z2D3EFG | 
[V:3] d4f4 | 
[V:4] B,,3C,D,4 | 
[V:1] D2^C2D2F2- | 
[V:2] A_BA2z2D2- | 
[V:3] e4d4- | 
[V:4] z2A,,2B,,3C, | 
[V:1] FEDC_B,4 | 
[V:2] DEF2GDG2 | 
[V:3] d8- | 
[V:4] D,4G,,4 | 
[V:1] A,8 |]  
[V:2] F8 |]  
[V:3] d8 |]  
[V:4] D,8 |]  



